Obsidian-SemiLight/actions/16s/run-build-install.svg

<svg viewBox="0 0 16 16" xmlns="http://www.w3.org/2000/svg"><path d="m7 2v1.1015625c-.626.129-1.2209063.3774687-1.7539062.7304687l-.78125-.78125-1.4140626 1.4140626.78125.78125c-.3519999.5329999-.5985625 1.1279062-.7265624 1.7539062h-1.1054688v2h1.1015625c.129.626.3774687 1.220906.7304687 1.753906l-.78125.78125 1.4140626 1.414063.78125-.78125c.533.352 1.1279062.598562 1.7539062.726562v1.105469h1v-2c-1.081 0-2.1161406-.437891-2.8691406-1.212891-.725-.747-1.1308594-1.746109-1.1308594-2.787109 0-1.081.4378906-2.1161406 1.2128906-2.8691406.747-.725 1.7461094-1.1308594 2.7871094-1.1308594 1.081 0 2.116141.4378906 2.869141 1.2128906.725.747 1.130859 1.7461094 1.130859 2.7871094h2v-1h-1.101562c-.129-.626-.377469-1.2209063-.730469-1.7539062l.78125-.78125-1.414063-1.4140626-.78125.78125c-.533-.3519999-1.127906-.5985625-1.753906-.7265624v-1.1054688zm0 4v4l3-2zm4 3v4.085938l-1.6210938-1.621094-.7070312.707031 2.828125 2.828125 1.878906-1.878906.949219-.949219-.707031-.707031-1.621094 1.621094v-4.085938z" fill="#4d4d4d"/></svg>

<svg xmlns="http://www.w3.org/2000/svg" viewBox="0 0 16 16">
  <defs id="defs3051">
    <style type="text/css" id="current-color-scheme">
      .ColorScheme-Text {
        color:#4d4d4d;
      }
      </style>
  </defs>
 <path 
     style="fill:currentColor;fill-opacity:1;stroke:none" 
     d="M 7 2 L 7 3.1015625 C 6.374 3.2305625 5.7790937 3.4790312 5.2460938 3.8320312 L 4.4648438 3.0507812 L 3.0507812 4.4648438 L 3.8320312 5.2460938 C 3.4800313 5.7790937 3.2334687 6.374 3.1054688 7 L 2 7 L 2 9 L 3.1015625 9 C 3.2305625 9.626 3.4790312 10.220906 3.8320312 10.753906 L 3.0507812 11.535156 L 4.4648438 12.949219 L 5.2460938 12.167969 C 5.7790938 12.519969 6.374 12.766531 7 12.894531 L 7 14 L 8 14 L 8 12 C 6.919 12 5.8838594 11.562109 5.1308594 10.787109 C 4.4058594 10.040109 4 9.041 4 8 C 4 6.919 4.4378906 5.8838594 5.2128906 5.1308594 C 5.9598906 4.4058594 6.959 4 8 4 C 9.081 4 10.116141 4.4378906 10.869141 5.2128906 C 11.594141 5.9598906 12 6.959 12 8 L 14 8 L 14 7 L 12.898438 7 C 12.769438 6.374 12.520969 5.7790937 12.167969 5.2460938 L 12.949219 4.4648438 L 11.535156 3.0507812 L 10.753906 3.8320312 C 10.220906 3.4800313 9.626 3.2334687 9 3.1054688 L 9 2 L 7 2 z M 7 6 L 7 10 L 10 8 L 7 6 z M 11 9 L 11 13.085938 L 9.3789062 11.464844 L 8.671875 12.171875 L 11.5 15 L 13.378906 13.121094 L 14.328125 12.171875 L 13.621094 11.464844 L 12 13.085938 L 12 9 L 11 9 z "
     class="ColorScheme-Text"/>
</svg>
